X: 24767
T: Maeve On The Mountain
R: slip jig
M: 9/8
K: Bdorian
|:F2B BAB d2B|FAB BAB A2E|F2B BAB def|1 e2e edB dBA:|2 e2e ede Bdf||
|:b2b baf edA|B2B BAB def|e2e edB dBA|1 e2e ede Bdf:|2 e2e edc B2A||

